X: 1
T: The Cowboy
R: jig
M: 6/8
L: 1/8
K: Gmaj
BA |: GDE G2A | Bgf gdB | ABc BGA |
B2B AGE | GDE G2A | Bgf gdB|
ABc BGA |1 BGG GBA :|2 BGG GBd ||
|:e2e edB| egf edB | d2d d2d |
dge dBG |c2d e2d | egB A2e|
dBG B2A|1 BGG GBd :|2 BGG G3 ||


Tune 794	Setting 13943

